X:1
T:Title
%%score { ( 1 4 5 ) | ( 2 3 ) }
L:1/8
Q:1/4=100
M:4/4
K:Bb
V:1 treble nm="Grand Piano"
V:4 treble 
V:5 treble 
V:2 bass 
V:3 bass 
V:1
 [DF]3 [DB] [EA]>[EG] [EA]>[EG] | [DF]4 [DFB]4 | c3 B A2 F2 | G2 A2 B4 | %4
w: J.~J.~Hoop * * * * *||||
 [DF]3 [DB] [EA]>[EG] [EA]>[EG] | [DF]4 [DFB]4 | c>c d>c B2 A2 |[M:2/4] [B,DB]4 | z4 | %9
w: |||||
[M:4/4] z z/ [DF]/ F>F F>F B>F | d6 z2 | B6 z2 |[M:11/16] A/-A/-A/-A/-A-<A z/ z |[M:5/16] F<DF/ | %14
w: |||||
[M:4/4] B6 z2 |[M:19/16] d/-d/-d/-d/-d/-d/-d/-d/-d/-d/-d/-d/-d/-d-<d z | %16
w: ||
[M:4/4] c>c d>d [Fe]>[Fe] [Fd]>[Gc] | [FB]2 [EA]2 [DB]4 |] %18
w: ||
V:2
 [B,,B,]3 [B,,B,] [B,,B,]>[B,,B,] [B,,B,]>[B,,B,] | [B,,B,]4 B,,4 | %2
 [F,A,E]3 [F,B,D] [F,CF]2 [A,C]2 | [C=E]2 [F,C_E]2 [B,D]4 | %4
 [B,,B,]3 [B,,B,] [B,,B,]>[B,,B,] [B,,B,]>[B,,B,] | [B,,B,]4 B,,4 | %6
 [F,A,F]>[F,A,F] [F,B,F]>[F,EF] [F,DF]2 [F,CE]2 |[M:2/4] B,,4 | z z/[K:treble] F/ D>F | %9
[M:4/4] B6[K:bass] z2 | z z/ [B,,B,]/ [B,,B,]>[B,,B,] [B,,B,]2 z2 | %11
 z z/ [E,B,]/ [E,B,]>[E,B,] [E,B,]2 z2 |[M:11/16] z/ z [F,C]<[F,C][F,C]<[F,CF] |[M:5/16] z5/2 | %14
[M:4/4] z z/ B,,/ [D,D]>[F,D] [B,D]2 z2 | %15
[M:19/16] z/ z [B,,B,]<[B,,B,][B,,B,]/[B,,B,]/-[B,,B,]/-[B,,B,]/-[B,,B,]/-[B,,B,]/-[B,,B,]-<[B,,B,][B,,B,] | %16
[M:4/4][K:treble] [F,A,F]>[F,A,F] [B,F]>[B,F][K:bass] [C,A,]>[C,A,] [D,A,]>[E,B,] | %17
 [F,D]2 [F,C]2 [B,,B,]4 |] %18
V:3
 x8 | x8 | x8 | x8 | x8 | x8 | x8 |[M:2/4] x4 | x3/2[K:treble] x5/2 | %9
[M:4/4] z z/[K:bass] B,,/ [D,D]>[F,D] [B,D]2 z2 | x8 | x8 |[M:11/16] x11/2 |[M:5/16] x5/2 | %14
[M:4/4] x8 |[M:19/16] x19/2 |[M:4/4][K:treble] x4[K:bass] x4 | x8 |] %18
V:4
 x8 | x8 | x8 | x8 | x8 | x8 | x8 |[M:2/4] x4 | x4 |[M:4/4] x8 | z z/ F/ F>F z z/ c/ d>c | %11
 z z/ G/ G>G G>G c>B |[M:11/16] z/ z F<FF<A |[M:5/16] x5/2 |[M:4/4] z z/ [DF]/ F>F F>F B>F | %15
[M:19/16] z/ z F<FF/F/-F/-F/-F/-F/-F-<F[Fd] |[M:4/4] x8 | x8 |] %18
V:5
 x8 | x8 | x8 | x8 | x8 | x8 | x8 |[M:2/4] x4 | x4 |[M:4/4] x8 | z4 F2 z2 | x8 |[M:11/16] x11/2 | %13
[M:5/16] x5/2 |[M:4/4] x8 |[M:19/16] x19/2 |[M:4/4] x8 | x8 |] %18

